!!!OTL: Joseppelied (3-16), S. 55
!!!id: P0988
**kern
*clefG2
*k[b-]
*F:
{8g
=1
8g
8g
8g
=2
8g
8g
8a
=3
8b-
8a
8g
=4
8f
8f}
=5
{8g
=6
8b-
8a
16a
16a
=7
8g
8g
8g
=8
8f
8g
8a
=9
8g
8g}
=10
{8g
=11
8g
8g
8cc
=12
8cc
8a
8f
=13
4b-
8cc
=14
4a}
=15
{8a
=16
4g
8g
=17
8f
8f
8f
=18
8b-
8a
8g
=19
4f}
==
*-
!!!minrhy: 16
!!!meters: 3/8 ]  ZZ[4
!!!cut: Joseppelied (3-16), S. 55
!!!reg: Lothringen
!!!trd: PINCK, Louis: Verklingende Weisen, Bd3, Metz 1933
!!!rhy1: X_  X_X_X_  X_X_X_  X_X_X_  X_X_
!!!rhy2: X_  X_X_XX  X_X_X_  X_X_X_  X_X_
!!!key: P0988  16  F 3/8 ]  ZZ[4
!!!mod: PENTATONIK DUR ?]  AMBITUS[5
!!!kad: 1231
!!!akz: 2241_4212_2543_2141_
!!!fot: 'a__b__c__d__
!!!for: 'a__b__c__d__
!!!fok: '^d_^__Ma_\__
!! PHRAS[AUFTAKTIG]
!!!fkt: yyy
!! LOTH VKL
!! PR[15] 2K[6] 2G[9] 3K[9] 3G[9] 4A[6] 4Ü[0] 5A[0] 6K[0] 6G[4]
!! 7K[0] 7G[0] 8A[0] MEHR[0] SI[43] ABS[54] SR[15] SP[28]
!! ST[16] 2k[2] 2g[15] 3k[11] 3g[4] 4d[4] 4ü[0] 5d[7] 6k[0] 6g[0]
!! 7k[0] 7g[0] 8d[0] mehr[0] si[43] dm[0] sr[17] sp[26]
!! 1F[18] 2F[69] 3F[4] 4F[0] LF[0] 2P[7] 3P[2] 4P[0] TRI[0] DF[5] AB[55]
!! TF[0] U3K[0] U3[0] U4[0] U4Ü[0] U5[5] U6K[0] U6[0] U7K[0] U7[0]
!! N1[11] N2K[0] N2[13] N3K[0] N3[29] N4[13] N4Ü[0] N5[20] N6K[0] N6[4]
!!!n7k: 0] N7[0] O1[5] O2K[0] O2[0] O3K[0] O3[0] HÖ[0
